public/images/logo.svg

<svg xmlns="http://www.w3.org/2000/svg" width="3518" height="490" fill="none"><path fill="#222" d="M0 0h1005v490H0z"/><path fill="#fff" d="M125.077 261.631V372H72.129V181.091h50.462v33.682h2.237q6.339-16.654 21.254-26.349 14.915-9.819 36.168-9.819 19.887 0 34.677 8.7 14.79 8.701 22.993 24.858 8.204 16.034 8.204 38.282V372h-52.948V259.891q.125-17.526-8.949-27.344-9.072-9.943-24.982-9.943-10.689 0-18.892 4.598-8.079 4.6-12.678 13.424-4.474 8.7-4.598 21.005m202.253 55.433.124-63.512h7.706l61.151-72.461h60.777l-82.155 95.952h-12.554zM279.354 372V117.455h52.947V372zm119.318 0-56.179-83.15 35.298-37.411L460.693 372zm126.84-254.545V372h-52.947V117.455zm118.171 258.274q-29.332 0-50.461-12.429-21.006-12.554-32.316-34.801-11.186-22.248-11.186-51.208 0-29.333 11.311-51.456 11.435-22.248 32.439-34.677 21.005-12.553 49.965-12.553 24.982 0 43.75 9.073 18.767 9.073 29.705 25.48 10.938 16.405 12.056 38.53h-49.964q-2.114-14.294-11.187-22.994-8.948-8.825-23.49-8.825-12.305 0-21.502 6.712-9.073 6.587-14.169 19.265t-5.096 30.699q0 18.271 4.971 31.073 5.096 12.801 14.294 19.513 9.197 6.712 21.502 6.712 9.072 0 16.282-3.729 7.332-3.728 12.056-10.813 4.847-7.209 6.339-17.276h49.964q-1.243 21.874-11.932 38.53-10.565 16.53-29.208 25.852t-44.123 9.322M753.34 372V117.455h52.948v95.703h1.616q3.48-7.707 10.067-15.661 6.712-8.079 17.401-13.423 10.812-5.469 26.846-5.469 20.881 0 38.53 10.938 17.65 10.812 28.214 32.688 10.564 21.75 10.564 54.563 0 31.943-10.316 53.942-10.191 21.875-27.84 33.185-17.526 11.187-39.276 11.186-15.412 0-26.225-5.096-10.69-5.095-17.525-12.801-6.836-7.831-10.44-15.785h-2.362V372zm51.829-95.455q0 17.028 4.723 29.706 4.723 12.677 13.672 19.762 8.949 6.96 21.751 6.96 12.926 0 21.875-7.085 8.95-7.208 13.547-19.886 4.723-12.801 4.723-29.457 0-16.53-4.598-29.083-4.599-12.553-13.548-19.638t-21.999-7.085q-12.927 0-21.875 6.836-8.824 6.837-13.548 19.389-4.722 12.554-4.723 29.581"/><path fill="#222" d="M1123.14 375.604c-12.18 0-23.03-2.113-32.56-6.338q-14.295-6.464-22.62-19.017c-5.47-8.451-8.21-18.975-8.21-31.569q0-15.91 5.85-26.723c3.89-7.208 9.19-13.009 15.91-17.4q10.065-6.588 22.86-9.943c8.62-2.238 17.65-3.812 27.1-4.723q16.65-1.74 26.85-3.232 10.185-1.615 14.79-4.723c3.06-2.071 4.6-5.137 4.6-9.197v-.746c0-7.872-2.49-13.962-7.46-18.271q-7.335-6.462-20.88-6.463c-9.53 0-17.11 2.113-22.75 6.339-5.63 4.143-9.36 9.363-11.18 15.661l-48.97-3.978c2.48-11.6 7.37-21.626 14.66-30.078 7.29-8.534 16.7-15.08 28.22-19.638 11.6-4.64 25.02-6.96 40.27-6.96q15.9 0 30.45 3.729c9.77 2.486 18.43 6.339 25.97 11.559 7.63 5.22 13.63 11.932 18.03 20.135 4.39 8.12 6.58 17.856 6.58 29.208V372h-50.21v-26.474h-1.49c-3.07 5.966-7.17 11.228-12.31 15.785-5.13 4.475-11.31 7.996-18.52 10.565-7.2 2.486-15.53 3.728-24.98 3.728m15.17-36.541c7.78 0 14.66-1.533 20.63-4.599 5.96-3.148 10.65-7.374 14.04-12.677q5.1-7.954 5.1-18.022v-20.259q-2.49 1.615-6.84 2.983-4.215 1.242-9.57 2.361c-3.56.663-7.12 1.284-10.69 1.864q-5.34.746-9.69 1.368c-6.22.911-11.64 2.361-16.28 4.35s-8.25 4.681-10.82 8.079c-2.57 3.314-3.85 7.457-3.85 12.429q0 10.813 7.83 16.53c5.3 3.729 12.02 5.593 20.14 5.593m175.87-77.432V372h-52.95V181.091h50.46v33.682h2.24c4.23-11.103 11.31-19.886 21.25-26.349 9.95-6.546 22-9.819 36.17-9.819q19.89 0 34.68 8.7c9.86 5.801 17.52 14.087 22.99 24.858 5.47 10.689 8.21 23.45 8.21 38.282V372h-52.95V259.891c.08-11.684-2.9-20.798-8.95-27.344-6.05-6.629-14.38-9.943-24.98-9.943q-10.695 0-18.9 4.598c-5.38 3.066-9.61 7.541-12.67 13.424-2.99 5.8-4.52 12.802-4.6 21.005m207.22 0V372h-52.94V181.091h50.46v33.682h2.23c4.23-11.103 11.31-19.886 21.26-26.349 9.94-6.546 22-9.819 36.17-9.819 13.25 0 24.81 2.9 34.67 8.7 9.86 5.801 17.53 14.087 23 24.858 5.47 10.689 8.2 23.45 8.2 38.282V372h-52.95V259.891c.09-11.684-2.9-20.798-8.95-27.344-6.05-6.629-14.37-9.943-24.98-9.943-7.12 0-13.42 1.533-18.89 4.598-5.39 3.066-9.61 7.541-12.68 13.424-2.98 5.8-4.51 12.802-4.6 21.005m240.54 114.098c-19.31 0-36.01-4.102-50.09-12.305-14-8.286-24.82-19.803-32.44-34.553-7.62-14.831-11.44-32.025-11.44-51.58 0-19.72 3.82-36.955 11.44-51.704 7.62-14.832 18.44-26.35 32.44-34.553 14.08-8.286 30.78-12.429 50.09-12.429 19.3 0 35.96 4.143 49.96 12.429 14.09 8.203 24.94 19.721 32.57 34.553q11.43 22.124 11.43 51.704 0 29.333-11.43 51.58c-7.63 14.75-18.48 26.267-32.57 34.553-14 8.203-30.66 12.305-49.96 12.305m.25-41.016c8.78 0 16.11-2.486 22-7.457q8.82-7.582 13.29-20.632c3.07-8.701 4.6-18.602 4.6-29.706s-1.53-21.005-4.6-29.705q-4.47-13.05-13.29-20.632c-5.89-5.054-13.22-7.582-22-7.582q-13.305 0-22.38 7.582c-5.96 5.054-10.48 11.932-13.54 20.632-2.99 8.7-4.48 18.602-4.48 29.705 0 11.104 1.49 21.005 4.48 29.706 3.06 8.7 7.58 15.577 13.54 20.632q9.075 7.457 22.38 7.457m240.06-43.999V181.091h52.95V372h-50.83v-34.677h-1.99c-4.31 11.186-11.48 20.177-21.5 26.971q-14.925 10.192-36.42 10.192c-12.76 0-23.99-2.9-33.68-8.7-9.7-5.801-17.28-14.045-22.75-24.734-5.38-10.689-8.12-23.491-8.2-38.406V181.091h52.95V293.2c.08 11.269 3.1 20.177 9.07 26.723 5.96 6.546 13.96 9.818 23.99 9.818 6.38 0 12.34-1.45 17.89-4.35 5.56-2.983 10.03-7.374 13.43-13.174 3.48-5.801 5.18-12.968 5.09-21.503M2140 261.631V372h-52.95V181.091h50.46v33.682h2.24c4.23-11.103 11.31-19.886 21.26-26.349 9.94-6.546 21.99-9.819 36.16-9.819q19.89 0 34.68 8.7c9.86 5.801 17.53 14.087 22.99 24.858 5.47 10.689 8.21 23.45 8.21 38.282V372h-52.95V259.891c.08-11.684-2.9-20.798-8.95-27.344-6.05-6.629-14.38-9.943-24.98-9.943-7.13 0-13.42 1.533-18.89 4.598-5.39 3.066-9.61 7.541-12.68 13.424-2.98 5.8-4.52 12.802-4.6 21.005m240.53 114.098q-29.325 0-50.46-12.429-21-12.554-32.31-34.801-11.19-22.248-11.19-51.208 0-29.333 11.31-51.456c7.63-14.832 18.44-26.391 32.44-34.677 14.01-8.368 30.66-12.553 49.97-12.553 16.65 0 31.23 3.024 43.75 9.073q18.765 9.073 29.7 25.48 10.935 16.405 12.06 38.53h-49.97c-1.41-9.529-5.13-17.194-11.18-22.994q-8.955-8.825-23.49-8.825c-8.21 0-15.37 2.238-21.51 6.712-6.04 4.392-10.77 10.813-14.16 19.265q-5.1 12.678-5.1 30.699c0 12.181 1.66 22.538 4.97 31.073 3.4 8.534 8.16 15.039 14.29 19.513 6.14 4.475 13.3 6.712 21.51 6.712 6.05 0 11.47-1.243 16.28-3.729 4.89-2.485 8.91-6.09 12.05-10.813 3.24-4.806 5.35-10.564 6.34-17.276h49.97c-.83 14.583-4.81 27.426-11.93 38.53-7.05 11.02-16.78 19.637-29.21 25.852q-18.645 9.321-44.13 9.322m195.67 0c-19.64 0-36.54-3.978-50.71-11.932-14.09-8.038-24.94-19.389-32.56-34.056-7.63-14.749-11.44-32.191-11.44-52.326 0-19.637 3.81-36.872 11.44-51.704q11.43-22.248 32.19-34.677c13.92-8.286 30.24-12.429 48.97-12.429 12.59 0 24.32 2.03 35.17 6.09q16.41 5.967 28.59 18.022 12.3 12.057 19.14 30.327c4.56 12.098 6.83 26.267 6.83 42.507v14.542h-161.2v-32.812h111.36c0-7.624-1.65-14.377-4.97-20.26-3.31-5.883-7.91-10.481-13.79-13.796-5.8-3.397-12.56-5.096-20.26-5.096-8.04 0-15.17 1.865-21.38 5.593-6.13 3.646-10.94 8.576-14.42 14.791q-5.22 9.196-5.34 20.508v31.196q0 14.17 5.22 24.485c3.56 6.878 8.57 12.181 15.04 15.91 6.46 3.728 14.12 5.593 22.99 5.593 5.88 0 11.27-.829 16.16-2.486s9.07-4.143 12.55-7.458c3.48-3.314 6.13-7.374 7.96-12.18l48.97 3.231c-2.49 11.767-7.59 22.041-15.29 30.824q-11.43 13.051-29.58 20.384-18.03 7.209-41.64 7.209M2687.88 372V181.091h50.46v33.682h2.24c3.97-11.186 10.6-20.01 19.88-26.473s20.39-9.695 33.31-9.695c13.09 0 24.24 3.273 33.44 9.819 9.19 6.463 15.33 15.246 18.39 26.349h1.99c3.89-10.937 10.94-19.679 21.13-26.225q15.405-9.943 36.42-9.943c17.81 0 32.27 5.676 43.37 17.028 11.19 11.269 16.78 27.261 16.78 47.976V372h-52.82V254.049c0-10.606-2.82-18.561-8.45-23.864-5.64-5.303-12.68-7.954-21.13-7.954q-14.415 0-22.5 9.197c-5.38 6.049-8.08 14.045-8.08 23.988V372h-51.33V252.93c0-9.363-2.69-16.82-8.08-22.372q-7.95-8.327-21-8.327c-5.89 0-11.19 1.491-15.91 4.474-4.64 2.9-8.33 7.002-11.06 12.305q-4.11 7.83-4.11 18.395V372zm395.74 3.729c-19.64 0-36.54-3.978-50.71-11.932-14.09-8.038-24.94-19.389-32.57-34.056q-11.43-22.124-11.43-52.326 0-29.456 11.43-51.704c7.63-14.832 18.36-26.391 32.2-34.677 13.92-8.286 30.24-12.429 48.97-12.429 12.59 0 24.31 2.03 35.17 6.09q16.41 5.967 28.59 18.022 12.3 12.057 19.14 30.327c4.55 12.098 6.83 26.267 6.83 42.507v14.542h-161.2v-32.812h111.36c0-7.624-1.65-14.377-4.97-20.26q-4.965-8.824-13.8-13.796-8.7-5.096-20.25-5.096c-8.04 0-15.17 1.865-21.38 5.593-6.13 3.646-10.94 8.576-14.42 14.791q-5.22 9.196-5.34 20.508v31.196q0 14.17 5.22 24.485 5.34 10.317 15.03 15.91c6.47 3.728 14.13 5.593 23 5.593 5.88 0 11.27-.829 16.16-2.486 4.88-1.657 9.07-4.143 12.55-7.458q5.22-4.971 7.95-12.18l48.97 3.231c-2.48 11.767-7.58 22.041-15.28 30.824q-11.445 13.051-29.58 20.384-18.03 7.209-41.64 7.209m164.62-114.098V372h-52.94V181.091h50.46v33.682h2.23c4.23-11.103 11.31-19.886 21.26-26.349 9.94-6.546 22-9.819 36.17-9.819 13.25 0 24.81 2.9 34.67 8.7 9.86 5.801 17.53 14.087 23 24.858 5.47 10.689 8.2 23.45 8.2 38.282V372h-52.95V259.891c.09-11.684-2.9-20.798-8.95-27.344-6.05-6.629-14.37-9.943-24.98-9.943-7.12 0-13.42 1.533-18.89 4.598-5.39 3.066-9.61 7.541-12.68 13.424-2.98 5.8-4.51 12.802-4.6 21.005m255.82-80.54v39.773H3389.1v-39.773zm-88.86-45.739h52.94v177.983c0 4.889.75 8.701 2.24 11.435 1.49 2.651 3.57 4.516 6.22 5.593 2.73 1.077 5.88 1.616 9.44 1.616 2.49 0 4.97-.207 7.46-.622 2.49-.497 4.39-.87 5.72-1.118l8.32 39.399c-2.65.829-6.38 1.782-11.18 2.859-4.81 1.16-10.65 1.865-17.53 2.113-12.76.497-23.94-1.201-33.55-5.096-9.53-3.894-16.95-9.943-22.25-18.146q-7.965-12.305-7.83-31.073z"/></svg>

<svg width="3518" height="490" viewBox="0 0 3518 490" fill="none" xmlns="http://www.w3.org/2000/svg">
<rect width="1005" height="490" fill="#222222"/>
<path d="M125.077 261.631V372H72.1293V181.091H122.591V214.773H124.828C129.054 203.67 136.138 194.887 146.082 188.424C156.025 181.878 168.081 178.605 182.25 178.605C195.508 178.605 207.067 181.505 216.927 187.305C226.787 193.106 234.452 201.392 239.92 212.163C245.389 222.852 248.124 235.613 248.124 250.445V372H195.176V259.891C195.259 248.207 192.276 239.093 186.227 232.547C180.179 225.918 171.851 222.604 161.245 222.604C154.119 222.604 147.822 224.137 142.353 227.202C136.967 230.268 132.741 234.743 129.675 240.626C126.692 246.426 125.16 253.428 125.077 261.631ZM327.33 317.064L327.454 253.552H335.16L396.311 181.091H457.088L374.933 277.043H362.379L327.33 317.064ZM279.354 372V117.455H332.301V372H279.354ZM398.672 372L342.493 288.85L377.791 251.439L460.693 372H398.672ZM525.512 117.455V372H472.565V117.455H525.512ZM643.683 375.729C624.128 375.729 607.308 371.586 593.222 363.3C579.218 354.931 568.446 343.33 560.906 328.499C553.449 313.667 549.72 296.598 549.72 277.291C549.72 257.736 553.49 240.584 561.031 225.835C568.654 211.003 579.467 199.444 593.47 191.158C607.473 182.79 624.128 178.605 643.435 178.605C660.089 178.605 674.673 181.629 687.185 187.678C699.697 193.727 709.598 202.22 716.89 213.158C724.182 224.095 728.2 236.938 728.946 251.688H678.982C677.573 242.159 673.844 234.494 667.795 228.694C661.83 222.811 653.999 219.869 644.305 219.869C636.102 219.869 628.934 222.107 622.803 226.581C616.754 230.973 612.031 237.394 608.634 245.846C605.236 254.298 603.538 264.531 603.538 276.545C603.538 288.726 605.195 299.083 608.509 307.618C611.906 316.152 616.671 322.657 622.803 327.131C628.934 331.606 636.102 333.843 644.305 333.843C650.353 333.843 655.781 332.6 660.587 330.114C665.475 327.629 669.494 324.024 672.643 319.301C675.874 314.495 677.987 308.737 678.982 302.025H728.946C728.117 316.608 724.14 329.451 717.014 340.555C709.971 351.575 700.235 360.192 687.806 366.407C675.377 372.621 660.67 375.729 643.683 375.729ZM753.34 372V117.455H806.288V213.158H807.904C810.224 208.02 813.579 202.8 817.971 197.497C822.445 192.111 828.246 187.637 835.372 184.074C842.58 180.428 851.529 178.605 862.218 178.605C876.139 178.605 888.982 182.251 900.748 189.543C912.514 196.751 921.919 207.647 928.962 222.231C936.005 236.731 939.526 254.919 939.526 276.794C939.526 298.089 936.088 316.07 929.21 330.736C922.416 345.319 913.136 356.381 901.37 363.921C889.686 371.379 876.594 375.107 862.094 375.107C851.819 375.107 843.078 373.409 835.869 370.011C828.743 366.614 822.901 362.347 818.344 357.21C813.787 351.989 810.307 346.728 807.904 341.425H805.542V372H753.34ZM805.169 276.545C805.169 287.897 806.744 297.799 809.892 306.251C813.041 314.702 817.598 321.29 823.564 326.013C829.53 330.653 836.78 332.973 845.315 332.973C853.932 332.973 861.224 330.612 867.19 325.888C873.156 321.083 877.672 314.454 880.737 306.002C883.886 297.468 885.46 287.649 885.46 276.545C885.46 265.525 883.928 255.83 880.862 247.462C877.796 239.093 873.28 232.547 867.314 227.824C861.348 223.101 854.015 220.739 845.315 220.739C836.697 220.739 829.406 223.018 823.44 227.575C817.557 232.133 813.041 238.596 809.892 246.964C806.744 255.333 805.169 265.194 805.169 276.545Z" fill="white"/>
<path d="M1123.14 375.604C1110.96 375.604 1100.11 373.491 1090.58 369.266C1081.05 364.957 1073.51 358.618 1067.96 350.249C1062.49 341.798 1059.75 331.274 1059.75 318.68C1059.75 308.074 1061.7 299.166 1065.6 291.957C1069.49 284.749 1074.79 278.948 1081.51 274.557C1088.22 270.165 1095.84 266.851 1104.37 264.614C1112.99 262.376 1122.02 260.802 1131.47 259.891C1142.57 258.731 1151.52 257.653 1158.32 256.659C1165.11 255.582 1170.04 254.008 1173.11 251.936C1176.17 249.865 1177.71 246.799 1177.71 242.739V241.993C1177.71 234.121 1175.22 228.031 1170.25 223.722C1165.36 219.414 1158.4 217.259 1149.37 217.259C1139.84 217.259 1132.26 219.372 1126.62 223.598C1120.99 227.741 1117.26 232.961 1115.44 239.259L1066.47 235.281C1068.95 223.681 1073.84 213.655 1081.13 205.203C1088.42 196.669 1097.83 190.123 1109.35 185.565C1120.95 180.925 1134.37 178.605 1149.62 178.605C1160.22 178.605 1170.37 179.848 1180.07 182.334C1189.84 184.82 1198.5 188.673 1206.04 193.893C1213.67 199.113 1219.67 205.825 1224.07 214.028C1228.46 222.148 1230.65 231.884 1230.65 243.236V372H1180.44V345.526H1178.95C1175.88 351.492 1171.78 356.754 1166.64 361.311C1161.51 365.786 1155.33 369.307 1148.12 371.876C1140.92 374.362 1132.59 375.604 1123.14 375.604ZM1138.31 339.063C1146.09 339.063 1152.97 337.53 1158.94 334.464C1164.9 331.316 1169.59 327.09 1172.98 321.787C1176.38 316.484 1178.08 310.477 1178.08 303.765V283.506C1176.42 284.583 1174.14 285.577 1171.24 286.489C1168.43 287.317 1165.24 288.104 1161.67 288.85C1158.11 289.513 1154.55 290.134 1150.98 290.714C1147.42 291.212 1144.19 291.667 1141.29 292.082C1135.07 292.993 1129.65 294.443 1125.01 296.432C1120.37 298.42 1116.76 301.113 1114.19 304.511C1111.62 307.825 1110.34 311.968 1110.34 316.94C1110.34 324.148 1112.95 329.659 1118.17 333.47C1123.47 337.199 1130.19 339.063 1138.31 339.063ZM1314.18 261.631V372H1261.23V181.091H1311.69V214.773H1313.93C1318.16 203.67 1325.24 194.887 1335.18 188.424C1345.13 181.878 1357.18 178.605 1371.35 178.605C1384.61 178.605 1396.17 181.505 1406.03 187.305C1415.89 193.106 1423.55 201.392 1429.02 212.163C1434.49 222.852 1437.23 235.613 1437.23 250.445V372H1384.28V259.891C1384.36 248.207 1381.38 239.093 1375.33 232.547C1369.28 225.918 1360.95 222.604 1350.35 222.604C1343.22 222.604 1336.92 224.137 1331.45 227.202C1326.07 230.268 1321.84 234.743 1318.78 240.626C1315.79 246.426 1314.26 253.428 1314.18 261.631ZM1521.4 261.631V372H1468.46V181.091H1518.92V214.773H1521.15C1525.38 203.67 1532.46 194.887 1542.41 188.424C1552.35 181.878 1564.41 178.605 1578.58 178.605C1591.83 178.605 1603.39 181.505 1613.25 187.305C1623.11 193.106 1630.78 201.392 1636.25 212.163C1641.72 222.852 1644.45 235.613 1644.45 250.445V372H1591.5V259.891C1591.59 248.207 1588.6 239.093 1582.55 232.547C1576.5 225.918 1568.18 222.604 1557.57 222.604C1550.45 222.604 1544.15 224.137 1538.68 227.202C1533.29 230.268 1529.07 234.743 1526 240.626C1523.02 246.426 1521.49 253.428 1521.4 261.631ZM1761.94 375.729C1742.63 375.729 1725.93 371.627 1711.85 363.424C1697.85 355.138 1687.03 343.621 1679.41 328.871C1671.79 314.04 1667.97 296.846 1667.97 277.291C1667.97 257.571 1671.79 240.336 1679.41 225.587C1687.03 210.755 1697.85 199.237 1711.85 191.034C1725.93 182.748 1742.63 178.605 1761.94 178.605C1781.24 178.605 1797.9 182.748 1811.9 191.034C1825.99 199.237 1836.84 210.755 1844.47 225.587C1852.09 240.336 1855.9 257.571 1855.9 277.291C1855.9 296.846 1852.09 314.04 1844.47 328.871C1836.84 343.621 1825.99 355.138 1811.9 363.424C1797.9 371.627 1781.24 375.729 1761.94 375.729ZM1762.19 334.713C1770.97 334.713 1778.3 332.227 1784.19 327.256C1790.07 322.201 1794.5 315.324 1797.48 306.624C1800.55 297.923 1802.08 288.022 1802.08 276.918C1802.08 265.815 1800.55 255.913 1797.48 247.213C1794.5 238.513 1790.07 231.635 1784.19 226.581C1778.3 221.527 1770.97 218.999 1762.19 218.999C1753.32 218.999 1745.86 221.527 1739.81 226.581C1733.85 231.635 1729.33 238.513 1726.27 247.213C1723.28 255.913 1721.79 265.815 1721.79 276.918C1721.79 288.022 1723.28 297.923 1726.27 306.624C1729.33 315.324 1733.85 322.201 1739.81 327.256C1745.86 332.227 1753.32 334.713 1762.19 334.713ZM2002.25 290.714V181.091H2055.2V372H2004.37V337.323H2002.38C1998.07 348.509 1990.9 357.5 1980.88 364.294C1970.93 371.089 1958.79 374.486 1944.46 374.486C1931.7 374.486 1920.47 371.586 1910.78 365.786C1901.08 359.985 1893.5 351.741 1888.03 341.052C1882.65 330.363 1879.91 317.561 1879.83 302.646V181.091H1932.78V293.2C1932.86 304.469 1935.88 313.377 1941.85 319.923C1947.81 326.469 1955.81 329.741 1965.84 329.741C1972.22 329.741 1978.18 328.291 1983.73 325.391C1989.29 322.408 1993.76 318.017 1997.16 312.217C2000.64 306.416 2002.34 299.249 2002.25 290.714ZM2140 261.631V372H2087.05V181.091H2137.51V214.773H2139.75C2143.98 203.67 2151.06 194.887 2161.01 188.424C2170.95 181.878 2183 178.605 2197.17 178.605C2210.43 178.605 2221.99 181.505 2231.85 187.305C2241.71 193.106 2249.38 201.392 2254.84 212.163C2260.31 222.852 2263.05 235.613 2263.05 250.445V372H2210.1V259.891C2210.18 248.207 2207.2 239.093 2201.15 232.547C2195.1 225.918 2186.77 222.604 2176.17 222.604C2169.04 222.604 2162.75 224.137 2157.28 227.202C2151.89 230.268 2147.67 234.743 2144.6 240.626C2141.62 246.426 2140.08 253.428 2140 261.631ZM2380.53 375.729C2360.98 375.729 2344.16 371.586 2330.07 363.3C2316.07 354.931 2305.3 343.33 2297.76 328.499C2290.3 313.667 2286.57 296.598 2286.57 277.291C2286.57 257.736 2290.34 240.584 2297.88 225.835C2305.51 211.003 2316.32 199.444 2330.32 191.158C2344.33 182.79 2360.98 178.605 2380.29 178.605C2396.94 178.605 2411.52 181.629 2424.04 187.678C2436.55 193.727 2446.45 202.22 2453.74 213.158C2461.03 224.095 2465.05 236.938 2465.8 251.688H2415.83C2414.42 242.159 2410.7 234.494 2404.65 228.694C2398.68 222.811 2390.85 219.869 2381.16 219.869C2372.95 219.869 2365.79 222.107 2359.65 226.581C2353.61 230.973 2348.88 237.394 2345.49 245.846C2342.09 254.298 2340.39 264.531 2340.39 276.545C2340.39 288.726 2342.05 299.083 2345.36 307.618C2348.76 316.152 2353.52 322.657 2359.65 327.131C2365.79 331.606 2372.95 333.843 2381.16 333.843C2387.21 333.843 2392.63 332.6 2397.44 330.114C2402.33 327.629 2406.35 324.024 2409.49 319.301C2412.73 314.495 2414.84 308.737 2415.83 302.025H2465.8C2464.97 316.608 2460.99 329.451 2453.87 340.555C2446.82 351.575 2437.09 360.192 2424.66 366.407C2412.23 372.621 2397.52 375.729 2380.53 375.729ZM2576.2 375.729C2556.56 375.729 2539.66 371.751 2525.49 363.797C2511.4 355.759 2500.55 344.408 2492.93 329.741C2485.3 314.992 2481.49 297.55 2481.49 277.415C2481.49 257.778 2485.3 240.543 2492.93 225.711C2500.55 210.879 2511.28 199.32 2525.12 191.034C2539.04 182.748 2555.36 178.605 2574.09 178.605C2586.68 178.605 2598.41 180.635 2609.26 184.695C2620.2 188.673 2629.73 194.68 2637.85 202.717C2646.05 210.755 2652.43 220.864 2656.99 233.044C2661.55 245.142 2663.82 259.311 2663.82 275.551V290.093H2502.62V257.281H2613.98C2613.98 249.657 2612.33 242.904 2609.01 237.021C2605.7 231.138 2601.1 226.54 2595.22 223.225C2589.42 219.828 2582.66 218.129 2574.96 218.129C2566.92 218.129 2559.79 219.994 2553.58 223.722C2547.45 227.368 2542.64 232.298 2539.16 238.513C2535.68 244.644 2533.9 251.48 2533.82 259.021V290.217C2533.82 299.663 2535.56 307.825 2539.04 314.702C2542.6 321.58 2547.61 326.883 2554.08 330.612C2560.54 334.34 2568.2 336.205 2577.07 336.205C2582.95 336.205 2588.34 335.376 2593.23 333.719C2598.12 332.062 2602.3 329.576 2605.78 326.261C2609.26 322.947 2611.91 318.887 2613.74 314.081L2662.71 317.312C2660.22 329.079 2655.12 339.353 2647.42 348.136C2639.8 356.837 2629.94 363.631 2617.84 368.52C2605.82 373.326 2591.94 375.729 2576.2 375.729ZM2687.88 372V181.091H2738.34V214.773H2740.58C2744.55 203.587 2751.18 194.763 2760.46 188.3C2769.74 181.837 2780.85 178.605 2793.77 178.605C2806.86 178.605 2818.01 181.878 2827.21 188.424C2836.4 194.887 2842.54 203.67 2845.6 214.773H2847.59C2851.48 203.836 2858.53 195.094 2868.72 188.548C2878.99 181.92 2891.13 178.605 2905.14 178.605C2922.95 178.605 2937.41 184.281 2948.51 195.633C2959.7 206.902 2965.29 222.894 2965.29 243.609V372H2912.47V254.049C2912.47 243.443 2909.65 235.488 2904.02 230.185C2898.38 224.882 2891.34 222.231 2882.89 222.231C2873.28 222.231 2865.78 225.297 2860.39 231.428C2855.01 237.477 2852.31 245.473 2852.31 255.416V372H2800.98V252.93C2800.98 243.567 2798.29 236.11 2792.9 230.558C2787.6 225.007 2780.6 222.231 2771.9 222.231C2766.01 222.231 2760.71 223.722 2755.99 226.705C2751.35 229.605 2747.66 233.707 2744.93 239.01C2742.19 244.23 2740.82 250.362 2740.82 257.405V372H2687.88ZM3083.62 375.729C3063.98 375.729 3047.08 371.751 3032.91 363.797C3018.82 355.759 3007.97 344.408 3000.34 329.741C2992.72 314.992 2988.91 297.55 2988.91 277.415C2988.91 257.778 2992.72 240.543 3000.34 225.711C3007.97 210.879 3018.7 199.32 3032.54 191.034C3046.46 182.748 3062.78 178.605 3081.51 178.605C3094.1 178.605 3105.82 180.635 3116.68 184.695C3127.62 188.673 3137.15 194.68 3145.27 202.717C3153.47 210.755 3159.85 220.864 3164.41 233.044C3168.96 245.142 3171.24 259.311 3171.24 275.551V290.093H3010.04V257.281H3121.4C3121.4 249.657 3119.75 242.904 3116.43 237.021C3113.12 231.138 3108.52 226.54 3102.63 223.225C3096.83 219.828 3090.08 218.129 3082.38 218.129C3074.34 218.129 3067.21 219.994 3061 223.722C3054.87 227.368 3050.06 232.298 3046.58 238.513C3043.1 244.644 3041.32 251.48 3041.24 259.021V290.217C3041.24 299.663 3042.98 307.825 3046.46 314.702C3050.02 321.58 3055.03 326.883 3061.49 330.612C3067.96 334.34 3075.62 336.205 3084.49 336.205C3090.37 336.205 3095.76 335.376 3100.65 333.719C3105.53 332.062 3109.72 329.576 3113.2 326.261C3116.68 322.947 3119.33 318.887 3121.15 314.081L3170.12 317.312C3167.64 329.079 3162.54 339.353 3154.84 348.136C3147.21 356.837 3137.35 363.631 3125.26 368.52C3113.24 373.326 3099.36 375.729 3083.62 375.729ZM3248.24 261.631V372H3195.3V181.091H3245.76V214.773H3247.99C3252.22 203.67 3259.3 194.887 3269.25 188.424C3279.19 181.878 3291.25 178.605 3305.42 178.605C3318.67 178.605 3330.23 181.505 3340.09 187.305C3349.95 193.106 3357.62 201.392 3363.09 212.163C3368.56 222.852 3371.29 235.613 3371.29 250.445V372H3318.34V259.891C3318.43 248.207 3315.44 239.093 3309.39 232.547C3303.34 225.918 3295.02 222.604 3284.41 222.604C3277.29 222.604 3270.99 224.137 3265.52 227.202C3260.13 230.268 3255.91 234.743 3252.84 240.626C3249.86 246.426 3248.33 253.428 3248.24 261.631ZM3504.06 181.091V220.864H3389.1V181.091H3504.06ZM3415.2 135.352H3468.14V313.335C3468.14 318.224 3468.89 322.036 3470.38 324.77C3471.87 327.421 3473.95 329.286 3476.6 330.363C3479.33 331.44 3482.48 331.979 3486.04 331.979C3488.53 331.979 3491.01 331.772 3493.5 331.357C3495.99 330.86 3497.89 330.487 3499.22 330.239L3507.54 369.638C3504.89 370.467 3501.16 371.42 3496.36 372.497C3491.55 373.657 3485.71 374.362 3478.83 374.61C3466.07 375.107 3454.89 373.409 3445.28 369.514C3435.75 365.62 3428.33 359.571 3423.03 351.368C3417.72 343.165 3415.11 332.807 3415.2 320.295V135.352Z" fill="#222222"/>
</svg>
